picto/electric-car-charging-station-left-framed.svg

<svg class="color-immutable" width="30" height="30" viewBox="0 0 30 30" fill="none" xmlns="http://www.w3.org/2000/svg"><path d="M30 0H0V30H30V0Z" fill="#2D327D"/><path d="M25.5 3C26.325 3 27 3.675 27 4.5V25.5C27 26.325 26.325 27 25.5 27H4.5C3.675 27 3 26.325 3 25.5V4.5C3 3.675 3.675 3 4.5 3H25.5ZM25.5 2.625H4.5C3.46613 2.625 2.625 3.46613 2.625 4.5V25.5C2.625 26.5339 3.46613 27.375 4.5 27.375H25.5C26.5339 27.375 27.375 26.5339 27.375 25.5V4.5C27.375 3.46613 26.5339 2.625 25.5 2.625Z" fill="white"/><path d="M13.65 11.25H10.875C10.0479 11.25 9.375 10.5771 9.375 9.75C9.375 8.9229 10.0479 8.25 10.875 8.25H11.626C12.0395 8.25 12.376 7.91355 12.376 7.5C12.376 7.08645 12.0395 6.75 11.626 6.75H6V6H11.626C12.4531 6 13.126 6.6729 13.126 7.5C13.126 8.3271 12.4531 9 11.626 9H10.875C10.4615 9 10.125 9.33645 10.125 9.75C10.125 10.1636 10.4615 10.5 10.875 10.5H13.65V11.25Z" fill="white"/><path d="M15.75 12.375H15C14.3787 12.375 13.875 11.8713 13.875 11.25V10.5C13.875 9.8787 14.3787 9.375 15 9.375H15.75C15.9571 9.375 16.125 9.54293 16.125 9.75V12C16.125 12.2071 15.9571 12.375 15.75 12.375Z" fill="white"/><path d="M17.6249 9.9375H16.35V10.3125H17.6249C17.7285 10.3125 17.8124 10.2286 17.8124 10.125C17.8124 10.0214 17.7285 9.9375 17.6249 9.9375Z" fill="white"/><path d="M17.625 11.4375H16.35V11.8125H17.625C17.7286 11.8125 17.8125 11.7286 17.8125 11.625C17.8125 11.5214 17.7286 11.4375 17.625 11.4375Z" fill="white"/><path d="M21.4201 16.7357C21.209 16.5247 20.923 16.4062 20.6245 16.4062H14.1405C13.8424 16.4062 13.5561 16.5246 13.3452 16.7357L10.7312 19.3495L6.34387 19.7137C6.14947 19.7297 6 19.8922 6 20.0872V22.4252C6 22.6318 6.16792 22.8 6.37507 22.8H6.78743V22.3688C6.78743 21.1268 7.7955 20.1188 9.03758 20.1188C10.2796 20.1188 11.2875 21.1268 11.2875 22.3688V22.8H18.75V22.3688C18.75 21.1268 19.7579 20.1188 20.9999 20.1188C22.242 20.1188 23.2499 21.1268 23.2499 22.3688V22.8H23.6248C23.8319 22.8 24 22.6318 24 22.4252V19.7815C24 19.4831 23.8814 19.197 23.6703 18.9859L21.4201 16.7357ZM16.9153 17.494L16.913 19.0317C16.9127 19.2387 16.745 19.4061 16.538 19.4061H12.2786C12.1543 19.4061 12.0535 19.3053 12.0535 19.1813C12.0535 19.1214 12.0771 19.0642 12.1195 19.0222L13.9129 17.2284C13.9832 17.1581 14.0787 17.1186 14.1782 17.1186H16.5403C16.7473 17.1186 16.9152 17.2866 16.9152 17.4938V17.494H16.9153ZM22.4867 19.4062H18.002C17.795 19.4062 17.6271 19.2382 17.6271 19.0312V17.4938C17.6271 17.2866 17.795 17.1186 18.002 17.1186H20.587C20.6865 17.1186 20.7818 17.1581 20.8522 17.2284L22.6456 19.0222C22.688 19.0642 22.7117 19.1214 22.7117 19.1813C22.7117 19.3053 22.6107 19.4062 22.4867 19.4062Z" fill="white"/><path fill-rule="evenodd" clip-rule="evenodd" d="M21.0165 23.3362C20.499 23.3362 20.0791 22.9163 20.0791 22.3988C20.0791 21.8813 20.499 21.4613 21.0165 21.4613C21.5341 21.4613 21.954 21.8812 21.954 22.3988C21.954 22.9163 21.5341 23.3362 21.0165 23.3362ZM20.9955 20.6784C20.0537 20.6784 19.2891 21.443 19.2891 22.3847C19.2891 23.3268 20.0537 24.0911 20.9955 24.0911C21.9373 24.0911 22.7019 23.3268 22.7019 22.3847C22.7019 21.443 21.9373 20.6784 20.9955 20.6784Z" fill="white"/><path fill-rule="evenodd" clip-rule="evenodd" d="M9.03906 23.3362C8.52164 23.3362 8.10164 22.9163 8.10164 22.3987C8.10164 21.8812 8.52164 21.4613 9.03906 21.4613C9.55664 21.4613 9.97664 21.8812 9.97664 22.3987C9.97656 22.9163 9.55656 23.3362 9.03906 23.3362ZM9.03899 20.6924C8.09714 20.6924 7.33289 21.457 7.33289 22.3988C7.33289 23.3409 8.09714 24.1051 9.03899 24.1051C9.98091 24.1051 10.7454 23.3409 10.7454 22.3988C10.7453 21.457 9.98091 20.6924 9.03899 20.6924Z" fill="white"/></svg>

<svg class="color-immutable" width="30" height="30" viewBox="0 0 30 30" fill="none" xmlns="http://www.w3.org/2000/svg"><g clip-path="url(#a)"><path d="M30 0H0v30h30V0Z" fill="#2D327D"/><path d="M25.5 3c.825 0 1.5.675 1.5 1.5v21c0 .825-.675 1.5-1.5 1.5h-21c-.825 0-1.5-.675-1.5-1.5v-21C3 3.675 3.675 3 4.5 3h21Zm0-.375h-21A1.877 1.877 0 0 0 2.625 4.5v21c0 1.034.841 1.875 1.875 1.875h21a1.877 1.877 0 0 0 1.875-1.875v-21A1.877 1.877 0 0 0 25.5 2.625Z" fill="#fff"/><path d="M13.65 11.25h-2.775c-.827 0-1.5-.673-1.5-1.5s.673-1.5 1.5-1.5h.751a.75.75 0 0 0 0-1.5H6V6h5.626c.827 0 1.5.673 1.5 1.5s-.673 1.5-1.5 1.5h-.751a.75.75 0 0 0 0 1.5h2.775v.75ZM15.75 12.375H15a1.125 1.125 0 0 1-1.125-1.125v-.75c0-.621.504-1.125 1.125-1.125h.75c.207 0 .375.168.375.375V12a.375.375 0 0 1-.375.375ZM17.625 9.938H16.35v.374h1.275a.187.187 0 1 0 0-.374ZM17.625 11.438H16.35v.374h1.275a.187.187 0 1 0 0-.374ZM21.42 16.736a1.125 1.125 0 0 0-.796-.33h-6.483c-.299 0-.585.119-.796.33l-2.614 2.613-4.387.365a.375.375 0 0 0-.344.373v2.338c0 .207.168.375.375.375h.412v-.431a2.25 2.25 0 0 1 4.5 0v.431h7.463v-.431a2.25 2.25 0 0 1 4.5 0v.431h.375a.375.375 0 0 0 .375-.375v-2.643c0-.299-.119-.585-.33-.796l-2.25-2.25Zm-4.505.758-.002 1.538a.375.375 0 0 1-.375.374h-4.26a.225.225 0 0 1-.159-.384l1.794-1.794c.07-.07.166-.11.265-.11h2.362c.207 0 .375.169.375.376Zm5.572 1.912h-4.485a.375.375 0 0 1-.375-.375v-1.537c0-.207.168-.375.375-.375h2.585c.1 0 .195.04.265.11l1.794 1.793a.225.225 0 0 1-.159.384Z" fill="#fff"/><path fill-rule="evenodd" clip-rule="evenodd" d="M21.017 23.336a.938.938 0 1 1 0-1.875.938.938 0 0 1 0 1.875Zm-.021-2.658a1.707 1.707 0 1 0 .001 3.415 1.707 1.707 0 0 0-.002-3.415ZM9.04 23.336a.938.938 0 1 1 0-1.875.938.938 0 0 1 0 1.875Zm-.001-2.644a1.707 1.707 0 1 0 .002 3.414 1.707 1.707 0 0 0-.002-3.414Z" fill="#fff"/></g><defs><clipPath id="a"><path fill="#fff" d="M0 0h30v30H0z"/></clipPath></defs></svg>
